;FLAVOR:Marlin
;TIME:1029
;Filament used: 0.558404m
;Layer height: 0.2
;MINX:101.067
;MINY:97.222
;MINZ:0.2
;MAXX:118.94
;MAXY:122.772
;MAXZ:31
;TARGET_MACHINE.NAME:SV06
;Generated with Cura_SteamEngine 5.10.0
M140 S60
M105
M190 S60
M104 S200
M105
M109 S200
M201 X500.00 Y500.00 Z100.00 E5000.00 ;Setup machine max acceleration
M203 X500.00 Y500.00 Z10.00 E50.00 ;Setup machine max feedrate
M204 P500.00 R1000.00 T500.00 ;Setup Print/Retract/Travel acceleration
M205 X8.00 Y8.00 Z0.40 E5.00 ;Setup Jerk
M220 S100 ;Reset Feedrate
M221 S100 ;Reset Flowrate

G28 ;Home
M420 S1 ;use bed mesh, must have used G29 previously

G92 E0 ;Reset Extruder
G1 Z2.0 F3000 ;Move Z Axis up
G1 X10.1 Y20 Z0.28 F5000.0 ;Move to start position
G1 X10.1 Y200.0 Z0.28 F1500.0 E15 ;Draw the first line
G1 X10.4 Y200.0 Z0.28 F5000.0 ;Move to side a little
G1 X10.4 Y20 Z0.28 F1500.0 E30 ;Draw the second line
G92 E0 ;Reset Extruder
G1 Z2.0 F3000 ;Move Z Axis up

M82 ;absolute extrusion mode
G92 E0
G92 E0
G1 F2400 E-0.5
;LAYER_COUNT:155
;LAYER:0
M107
M204 S500
M205 X10 Y10
G1 F600 Z0.6
G0 F4000 X104.804 Y100.963 Z0.6
M204 S1000
M205 X5 Y5
;TYPE:SKIRT
G1 F600 Z0.2
G1 F2400 E0
G1 F1200 X105.877 Y100.028 E0.071
G1 X106.739 Y99.382 E0.12475
G1 X107.264 Y99.058 E0.15553
G1 X108.278 Y98.502 E0.21322
G1 X108.83 Y98.26 E0.24329
G1 X109.879 Y97.869 E0.29914
G1 X110.663 Y97.641 E0.33988
G1 X111.476 Y97.46 E0.38143
G1 X112.744 Y97.271 E0.44539
G1 X113.68 Y97.222 E0.49215
G1 X114.363 Y97.249 E0.52625
G1 X115.053 Y97.369 E0.56119
G1 X115.849 Y97.626 E0.60292
G1 X116.571 Y98.008 E0.64368
G1 X117.217 Y98.509 E0.68446
G1 X117.752 Y99.045 E0.72224
G1 X118.234 Y99.753 E0.76497
G1 X118.504 Y100.285 E0.79474
G1 X118.812 Y101.187 E0.84229
G1 X118.929 Y102.272 E0.89674
G1 X118.94 Y103.656 E0.96579
G1 X118.924 Y104.541 E1.00995
G1 X118.868 Y105.879 E1.07676
G1 X118.787 Y108.673 E1.21621
G1 X118.785 Y111.336 E1.34907
G1 X118.861 Y114.036 E1.48382
G1 X118.898 Y114.698 E1.5169
G1 X118.934 Y115.76 E1.56992
G1 X118.94 Y117.023 E1.63293
G1 X118.928 Y117.8 E1.6717
G1 X118.85 Y118.599 E1.71175
G1 X118.618 Y119.434 E1.75499
G1 X118.36 Y120.046 E1.78812
G1 X117.844 Y120.826 E1.83478
G1 X117.389 Y121.331 E1.86869
G1 X116.811 Y121.829 E1.90676
G1 X116.256 Y122.167 E1.93918
G1 X115.459 Y122.519 E1.98264
G1 X114.6 Y122.736 E2.02685
G1 X113.484 Y122.772 E2.08255
G1 X112.436 Y122.701 E2.13496
G1 X110.605 Y122.373 E2.22776
G1 X109.046 Y121.84 E2.30996
G1 X107.916 Y121.319 E2.37204
G1 X106.914 Y120.723 E2.4302
G1 X106.06 Y120.114 E2.48253
G1 X105.173 Y119.391 E2.53962
G1 X104.335 Y118.532 E2.59949
G1 X103.743 Y117.804 E2.64631
G1 X103.156 Y116.987 E2.6965
G1 X102.627 Y116.09 E2.74845
G1 X102.264 Y115.368 E2.78877
G1 X101.728 Y114.079 E2.85842
G1 X101.411 Y112.885 E2.92005
G1 X101.267 Y112.177 E2.95609
G1 X101.129 Y111.163 E3.00715
G1 X101.067 Y109.949 E3.06779
G1 X101.092 Y109.319 E3.09925
G1 X101.171 Y108.432 E3.14368
G1 X101.306 Y107.582 E3.18662
G1 X101.532 Y106.632 E3.23533
G1 X101.851 Y105.59 E3.2897
G1 X102.06 Y105.078 E3.31729
G1 X102.515 Y104.123 E3.37007
G1 X102.979 Y103.303 E3.41707
G1 X103.464 Y102.571 E3.46088
G1 X104.087 Y101.751 E3.51226
G1 X104.804 Y100.963 E3.56541
M204 S500
M205 X10 Y10
G0 F4000 X105.248 Y101.367
M204 S1000
M205 X5 Y5
G1 F1200 X106.238 Y100.507 E3.63084
G1 X107.055 Y99.892 E3.68185
G1 X107.554 Y99.583 E3.71114
G1 X108.519 Y99.051 E3.76611
G1 X109.04 Y98.822 E3.7945
G1 X110.047 Y98.445 E3.84815
G1 X110.793 Y98.227 E3.88692
G1 X111.606 Y98.046 E3.92848
G1 X112.776 Y97.87 E3.98751
G1 X113.662 Y97.822 E4.03177
G1 X114.26 Y97.84 E4.06162
G1 X114.95 Y97.96 E4.09656
G1 X115.613 Y98.18 E4.13141
G1 X116.244 Y98.514 E4.16703
G1 X116.792 Y98.933 E4.20145
G1 X117.288 Y99.43 E4.23648
G1 X117.738 Y100.091 E4.27637
G1 X117.966 Y100.551 E4.30199
G1 X118.223 Y101.319 E4.34239
G1 X118.329 Y102.277 E4.39048
G1 X118.34 Y103.646 E4.45878
G1 X118.325 Y104.516 E4.50219
G1 X118.268 Y105.862 E4.5694
G1 X118.187 Y108.656 E4.70885
G1 X118.185 Y111.336 E4.84256
G1 X118.261 Y114.053 E4.97816
G1 X118.298 Y114.719 E5.01144
G1 X118.334 Y115.763 E5.06356
G1 X118.34 Y117.014 E5.12597
G1 X118.328 Y117.791 E5.16474
G1 X118.258 Y118.489 E5.19974
G1 X118.065 Y119.201 E5.23654
G1 X117.828 Y119.762 E5.26693
G1 X117.395 Y120.428 E5.30656
G1 X116.997 Y120.877 E5.33649
G1 X116.46 Y121.34 E5.37187
G1 X115.944 Y121.654 E5.402
G1 X115.263 Y121.949 E5.43903
G1 X114.516 Y122.138 E5.47747
G1 X113.525 Y122.173 E5.52694
G1 X112.477 Y122.102 E5.57935
G1 X110.76 Y121.792 E5.66639
G1 X109.24 Y121.272 E5.74654
G1 X108.223 Y120.803 E5.80242
G1 X107.221 Y120.207 E5.86058
G1 X106.438 Y119.648 E5.90858
G1 X105.602 Y118.971 E5.96225
G1 X104.801 Y118.153 E6.01936
G1 X104.209 Y117.425 E6.06618
G1 X103.644 Y116.637 E6.11455
G1 X103.163 Y115.82 E6.16185
G1 X102.8 Y115.098 E6.20217
G1 X102.308 Y113.925 E6.26563
G1 X101.991 Y112.731 E6.32726
G1 X101.862 Y112.096 E6.35959
G1 X101.724 Y111.082 E6.41065
G1 X101.667 Y109.972 E6.4661
G1 X101.69 Y109.371 E6.4961
G1 X101.764 Y108.525 E6.53847
G1 X101.89 Y107.721 E6.57907
G1 X102.116 Y106.771 E6.62779
G1 X102.407 Y105.817 E6.67755
G1 X102.616 Y105.305 E6.70514
G1 X103.037 Y104.418 E6.75412
G1 X103.48 Y103.634 E6.79905
G1 X103.943 Y102.933 E6.84096
G1 X104.531 Y102.155 E6.88962
G1 X105.248 Y101.367 E6.94277
M204 S500
M205 X10 Y10
G0 F4000 X105.692 Y101.771
M204 S1000
M205 X5 Y5
G1 F1200 X106.6 Y100.986 E7.00265
G1 X107.372 Y100.402 E7.05095
G1 X107.845 Y100.108 E7.07873
G1 X108.761 Y99.6 E7.13099
G1 X109.251 Y99.384 E7.1577
G1 X110.217 Y99.021 E7.20919
G1 X110.923 Y98.813 E7.24591
G1 X111.736 Y98.632 E7.28746
G1 X112.81 Y98.469 E7.34166
G1 X113.65 Y98.422 E7.38363
G1 X114.163 Y98.432 E7.40923
G1 X114.761 Y98.53 E7.43946
G1 X115.38 Y98.735 E7.47199
G1 X115.919 Y99.021 E7.50243
G1 X116.367 Y99.357 E7.53037
G1 X116.827 Y99.818 E7.56286
G1 X117.2 Y100.357 E7.59557
G1 X117.428 Y100.817 E7.62118
G1 X117.634 Y101.447 E7.65425
G1 X117.729 Y102.282 E7.69617
G1 X117.74 Y103.636 E7.76373
G1 X117.726 Y104.49 E7.80634
G1 X117.668 Y105.845 E7.874
G1 X117.587 Y108.639 E8.01346
G1 X117.585 Y111.336 E8.14801
G1 X117.661 Y114.07 E8.28446
G1 X117.698 Y114.74 E8.31794
G1 X117.734 Y115.766 E8.36916
G1 X117.74 Y117.007 E8.43107
G1 X117.731 Y117.731 E8.4672
G1 X117.666 Y118.381 E8.49979
G1 X117.512 Y118.967 E8.53001
G1 X117.293 Y119.485 E8.55807
G1 X116.941 Y120.035 E8.59065
G1 X116.605 Y120.423 E8.61626
G1 X116.109 Y120.851 E8.64894
G1 X115.632 Y121.141 E8.67679
G1 X115.073 Y121.378 E8.70708
G1 X114.432 Y121.54 E8.74007
G1 X113.566 Y121.574 E8.78331
G1 X112.518 Y121.503 E8.83571
G1 X110.912 Y121.21 E8.91716
G1 X109.49 Y120.726 E8.9921
G1 X108.53 Y120.287 E9.04476
G1 X107.528 Y119.691 E9.10293
G1 X106.814 Y119.18 E9.14673
G1 X106.03 Y118.55 E9.19691
G1 X105.267 Y117.774 E9.2512
G1 X104.675 Y117.046 E9.29802
G1 X104.161 Y116.332 E9.34191
G1 X103.699 Y115.55 E9.38722
G1 X103.336 Y114.828 E9.42754
G1 X102.888 Y113.771 E9.48482
G1 X102.571 Y112.577 E9.54645
G1 X102.45 Y111.977 E9.57699
G1 X102.323 Y111.05 E9.62367
G1 X102.267 Y109.994 E9.67642
G1 X102.288 Y109.422 E9.70498
G1 X102.357 Y108.617 E9.74529
G1 X102.474 Y107.86 E9.7835
G1 X102.7 Y106.91 E9.83222
G1 X102.963 Y106.044 E9.87738
G1 X103.172 Y105.532 E9.90497
G1 X103.579 Y104.676 E9.95225
G1 X103.981 Y103.965 E9.993
G1 X104.444 Y103.264 E10.03492
G1 X104.975 Y102.559 E10.07895
G1 X105.692 Y101.771 E10.1321
M204 S500
M205 X10 Y10
G0 F4000 X106.136 Y102.175
M204 S1000
M205 X5 Y5
G1 F1200 X106.991 Y101.441 E10.18832
G1 X107.689 Y100.912 E10.23201
G1 X108.162 Y100.618 E10.2598
G1 X109.003 Y100.149 E10.30784
G1 X109.493 Y99.933 E10.33456
G1 X110.387 Y99.596 E10.38222
G1 X111.053 Y99.399 E10.41687
G1 X111.866 Y99.218 E10.45843
G1 X112.845 Y99.068 E10.50784
G1 X113.638 Y99.022 E10.54747
G1 X114.151 Y99.032 E10.57307
G1 X114.657 Y99.121 E10.5987
G1 X115.142 Y99.288 E10.62429
G1 X115.596 Y99.529 E10.64993
G1 X116.007 Y99.837 E10.67556
G1 X116.365 Y100.204 E10.70113
G1 X116.662 Y100.623 E10.72676
G1 X116.89 Y101.083 E10.75237
G1 X117.044 Y101.573 E10.778
G1 X117.129 Y102.287 E10.81387
G1 X117.14 Y103.627 E10.88072
G1 X117.127 Y104.464 E10.92249
G1 X117.068 Y105.828 E10.9906
G1 X116.987 Y108.622 E11.13005
G1 X116.985 Y111.336 E11.26545
G1 X117.061 Y114.087 E11.40276
G1 X117.098 Y114.761 E11.43643
G1 X117.134 Y115.769 E11.48675
G1 X117.14 Y117 E11.54817
G1 X117.131 Y117.724 E11.58429
G1 X117.084 Y118.235 E11.60989
G1 X116.959 Y118.733 E11.63551
G1 X116.759 Y119.206 E11.66113
G1 X116.487 Y119.642 E11.68677
G1 X116.151 Y120.03 E11.71238
G1 X115.759 Y120.361 E11.73797
G1 X115.32 Y120.628 E11.76361
G1 X114.845 Y120.823 E11.78922
G1 X114.346 Y120.943 E11.81483
G1 X113.607 Y120.975 E11.85173
G1 X112.559 Y120.904 E11.90414
G1 X111.021 Y120.62 E11.98216
G1 X109.74 Y120.18 E12.04974
G1 X108.78 Y119.741 E12.1024
G1 X107.877 Y119.203 E12.15484
G1 X107.19 Y118.712 E12.19697
G1 X106.406 Y118.082 E12.24715
G1 X105.732 Y117.395 E12.29517
G1 X105.161 Y116.694 E12.34027
G1 X104.678 Y116.027 E12.38136
G1 X104.216 Y115.245 E12.42667
G1 X103.872 Y114.559 E12.46496
G1 X103.468 Y113.617 E12.5161
G1 X103.151 Y112.423 E12.57773
G1 X103.038 Y111.859 E12.60643
G1 X102.922 Y111.017 E12.64883
G1 X102.867 Y110.015 E12.69889
G1 X102.886 Y109.472 E12.726
G1 X102.95 Y108.707 E12.7643
G1 X103.058 Y107.999 E12.80003
G1 X103.284 Y107.049 E12.84875
G1 X103.519 Y106.271 E12.8893
G1 X103.728 Y105.759 E12.91689
G1 X104.102 Y104.97 E12.96045
G1 X104.482 Y104.295 E12.99909
G1 X104.924 Y103.624 E13.03918
G1 X105.419 Y102.963 E13.08038
G1 X106.136 Y102.175 E13.13353
M204 S500
M205 X10 Y10
G1 F2400 E12.63353
G1 F600 Z0.6
;MESH:shampoo-lock.stl
G0 F4000 X112.85 Y103.386 Z0.6
M204 S1000
M205 X5 Y5
;TYPE:WALL-INNER
G1 F600 Z0.2
G1 F2400 E13.13353
G1 F918.4 X111.896 Y103.597 E13.19723
G1 F906.8 X110.914 Y103.994 E13.26716
G1 F902.3 X110.495 Y104.214 E13.29856
G1 X109.731 Y104.732 E13.35981
G1 F898.9 X109.031 Y105.361 E13.42249
G1 F897.8 X108.356 Y106.168 E13.49265
G1 F900 X107.924 Y106.895 E13.5489
G1 X107.56 Y107.718 E13.60876
G1 F888.9 X107.362 Y108.361 E13.65408
G1 F891.1 X107.224 Y109.07 E13.7026
G1 F902.3 X107.16 Y110.004 E13.76472
G1 F903.4 X107.224 Y110.929 E13.82617
G1 F904.5 X107.378 Y111.738 E13.88068
G1 F901.1 X107.737 Y112.716 E13.94989
G1 F900 X108.176 Y113.541 E14.01206
G1 F901.1 X108.698 Y114.264 E14.0713
G1 X109.032 Y114.638 E14.10462
G1 F900 X109.817 Y115.346 E14.17494
G1 X110.533 Y115.804 E14.23148
G1 F898.9 X111.362 Y116.2 E14.29267
G1 F902.3 X111.935 Y116.408 E14.33311
G1 F916 X112.85 Y116.609 E14.39434
M204 S500
M205 X10 Y10
G1 F2400 E13.89434
G1 F600 Z0.6
G0 F4000 X110 Y116.311 Z0.6
M204 S1000
M205 X5 Y5
;TYPE:WALL-OUTER
G1 F600 Z0.2
G1 F2400 E14.39434
G1 F1200 X110.604 Y116.63 E14.42842
G1 X111.078 Y116.841 E14.4543
G1 X111.553 Y117.018 E14.47959
G1 X112.048 Y117.156 E14.50523
G1 X112.553 Y117.264 E14.531
G1 X113.082 Y117.338 E14.55764
G1 X113.54 Y117.37 E14.58055
G1 X113.54 Y115.962 E14.6508
G1 X112.976 Y115.931 E14.67898
G1 X111.796 Y115.635 E14.73967
G1 X110.859 Y115.186 E14.79151
G1 X110.147 Y114.707 E14.83432
G1 X109.529 Y114.146 E14.87596
G1 X109.244 Y113.828 E14.89726
G1 X108.766 Y113.166 E14.938
G1 X108.377 Y112.434 E14.97936
G1 X108.09 Y111.649 E15.02106
G1 X107.913 Y110.826 E15.06306
G1 X107.86 Y109.98 E15.10535
G1 X107.913 Y109.178 E15.14544
G1 X107.995 Y108.729 E15.16822
G1 X108.221 Y107.947 E15.20883
G1 X108.564 Y107.181 E15.2507
G1 X109.006 Y106.476 E15.29221
G1 X109.554 Y105.829 E15.33451
G1 X110.147 Y105.293 E15.37439
G1 X110.86 Y104.81 E15.41736
G1 X111.231 Y104.617 E15.43822
G1 X112 Y104.307 E15.47959
G1 X112.974 Y104.064 E15.52967
G1 X113.54 Y104.034 E15.55795
G1 X113.54 Y102.626 E15.62819
G1 X113.058 Y102.661 E15.6523
G1 X112.553 Y102.732 E15.67775
G1 X112.026 Y102.846 E15.70465
G1 X111.271 Y103.066 E15.74388
G1 X110.608 Y103.366 E15.78019
G1 X110.146 Y103.609 E15.80623
G1 X109.713 Y103.881 E15.83174
G1 X109.301 Y104.181 E15.85717
G1 X108.901 Y104.516 E15.8832
G1 X108.528 Y104.873 E15.90896
G1 X108.183 Y105.257 E15.93471
G1 X107.868 Y105.664 E15.96039
G1 X107.583 Y106.088 E15.98587
G1 X107.321 Y106.538 E16.01185
G1 X107.099 Y106.995 E16.0372
G1 X106.902 Y107.479 E16.06327
G1 X106.672 Y108.189 E16.10051
G1 X106.533 Y108.971 E16.14013
G1 X106.476 Y109.49 E16.16618
G1 X106.452 Y110.287 E16.20596
G1 X106.537 Y111.045 E16.24401
G1 X106.66 Y111.772 E16.2808
G1 X106.902 Y112.521 E16.32007
G1 X107.098 Y113.001 E16.34594
G1 X107.322 Y113.459 E16.37137
G1 X107.583 Y113.912 E16.39746
G1 X108.031 Y114.57 E16.43717
G1 X108.528 Y115.123 E16.47426
G1 X108.897 Y115.481 E16.49991
G1 X109.297 Y115.815 E16.52591
G1 X109.931 Y116.275 E16.56499
G1 X110 Y116.311 E16.56887
M204 S500
M205 X10 Y10
G1 F2400 E16.06887
G1 F600 Z0.6
;MESH:NONMESH
G0 F4000 X106.136 Y102.175 Z0.6
;TIME_ELAPSED:22.622898
;LAYER:1
M106 S255
G0 F8000 X106.136 Y102.175 Z0.8
M204 S1000
M205 X5 Y5
;TYPE:SKIRT
G1 F600 Z0.4
G1 F2400 E16.56887
G1 F1200 X106.991 Y101.441 E16.60635
G1 X107.689 Y100.912 E16.63548
G1 X108.162 Y100.618 E16.65401
G1 X109.003 Y100.149 E16.68603
G1 X109.493 Y99.933 E16.70384
G1 X110.387 Y99.596 E16.73562
G1 X111.053 Y99.399 E16.75872
G1 X111.866 Y99.218 E16.78642
G1 X112.845 Y99.068 E16.81936
G1 X113.638 Y99.022 E16.84578
G1 X114.151 Y99.032 E16.86285
G1 X114.657 Y99.121 E16.87994
G1 X115.142 Y99.288 E16.897
G1 X115.596 Y99.529 E16.91409
G1 X116.007 Y99.837 E16.93118
G1 X116.365 Y100.204 E16.94823
G1 X116.662 Y100.623 E16.96531
G1 X116.89 Y101.083 E16.98239
G1 X117.044 Y101.573 E16.99947
G1 X117.129 Y102.287 E17.02339
G1 X117.14 Y103.627 E17.06796
G1 X117.127 Y104.464 E17.0958
G1 X117.068 Y105.828 E17.14121
G1 X116.987 Y108.622 E17.23418
G1 X116.985 Y111.336 E17.32444
G1 X117.061 Y114.087 E17.41598
G1 X117.098 Y114.761 E17.43843
G1 X117.134 Y115.769 E17.47198
G1 X117.14 Y117 E17.51292
G1 X117.131 Y117.724 E17.537
G1 X117.084 Y118.235 E17.55407
G1 X116.959 Y118.733 E17.57115
G1 X116.759 Y119.206 E17.58823
G1 X116.487 Y119.642 E17.60532
G1 X116.151 Y120.03 E17.62239
G1 X115.759 Y120.361 E17.63945
G1 X115.32 Y120.628 E17.65654
G1 X114.845 Y120.823 E17.67362
G1 X114.346 Y120.943 E17.69069
G1 X113.607 Y120.975 E17.71529
G1 X112.559 Y120.904 E17.75023
G1 X111.021 Y120.62 E17.80225
G1 X109.74 Y120.18 E17.8473
G1 X108.78 Y119.741 E17.88241
G1 X107.877 Y119.203 E17.91737
G1 X107.19 Y118.712 E17.94546
G1 X106.406 Y118.082 E17.97891
G1 X105.732 Y117.395 E18.01092
G1 X105.161 Y116.694 E18.04099
G1 X104.678 Y116.027 E18.06838
G1 X104.216 Y115.245 E18.09859
G1 X103.872 Y114.559 E18.12411
G1 X103.468 Y113.617 E18.1582
G1 X103.151 Y112.423 E18.19929
G1 X103.038 Y111.859 E18.21842
G1 X102.922 Y111.017 E18.24669
G1 X102.867 Y110.015 E18.28007
G1 X102.886 Y109.472 E18.29814
G1 X102.95 Y108.707 E18.32367
G1 X103.058 Y107.999 E18.34749
G1 X103.284 Y107.049 E18.37997
G1 X103.519 Y106.271 E18.407
G1 X103.728 Y105.759 E18.4254
G1 X104.102 Y104.97 E18.45444
G1 X104.482 Y104.295 E18.4802
G1 X104.924 Y103.624 E18.50693
G1 X105.419 Y102.963 E18.53439
G1 X106.136 Y102.175 E18.56983
M204 S500
M205 X10 Y10
G1 F2400 E18.06983
G1 F600 Z0.8
;MESH:shampoo-lock.stl
G0 F8000 X110 Y115.952 Z0.8
M204 S1000
M205 X5 Y5
;TYPE:WALL-INNER
G1 F600 Z0.4
G1 F2400 E18.56983
G1 F1500 X110.078 Y116.008 E18.57302
G1 X110.746 Y116.366 E18.59823
G1 X111.655 Y116.733 E18.63083
G1 X112.34 Y116.911 E18.65437
G1 F1209.7 X112.758 Y116.894 E18.67163
G1 F1013.5 X113.145 Y116.946 E18.69085
G1 F1015.2 X113.145 Y116.338 E18.72073
G1 F1013.5 X112.869 Y116.312 E18.73437
G1 F1209.7 X112.519 Y116.128 E18.75068
G1 F1500 X111.948 Y115.988 E18.77023
G1 X111.484 Y115.821 E18.78664
G1 X110.695 Y115.438 E18.81581
G1 X110.314 Y115.196 E18.83082
G1 X109.628 Y114.658 E18.85982
G1 X108.996 Y113.999 E18.89018
G1 X108.513 Y113.327 E18.91771
G1 X108.113 Y112.576 E18.94601
G1 X107.805 Y111.741 E18.97561
G1 X107.615 Y110.86 E19.00559
G1 X107.56 Y110.019 E19.03362
G1 X107.615 Y109.141 E19.06288
G1 X107.812 Y108.234 E19.09375
G1 X108.095 Y107.459 E19.12119
G1 X108.501 Y106.691 E19.15008
G1 X109.027 Y105.959 E19.18006
G1 X109.644 Y105.325 E19.20949
G1 X109.974 Y105.048 E19.22382
G1 X110.674 Y104.574 E19.25194
G1 X111.504 Y104.167 E19.28268
