;FLAVOR:Marlin
;TIME:978
;Filament used: 0.383879m
;Layer height: 0.2
;MINX:101.469
;MINY:98.637
;MINZ:0.2
;MAXX:118.54
;MAXY:121.361
;MAXZ:30
;TARGET_MACHINE.NAME:SV06
;Generated with Cura_SteamEngine 5.10.0
M140 S60
M105
M190 S60
M104 S200
M105
M109 S200
M201 X500.00 Y500.00 Z100.00 E5000.00 ;Setup machine max acceleration
M203 X500.00 Y500.00 Z10.00 E50.00 ;Setup machine max feedrate
M204 P500.00 R1000.00 T500.00 ;Setup Print/Retract/Travel acceleration
M205 X8.00 Y8.00 Z0.40 E5.00 ;Setup Jerk
M220 S100 ;Reset Feedrate
M221 S100 ;Reset Flowrate

G28 ;Home
M420 S1 ;use bed mesh, must have used G29 previously

G92 E0 ;Reset Extruder
G1 Z2.0 F3000 ;Move Z Axis up
G1 X10.1 Y20 Z0.28 F5000.0 ;Move to start position
G1 X10.1 Y200.0 Z0.28 F1500.0 E15 ;Draw the first line
G1 X10.4 Y200.0 Z0.28 F5000.0 ;Move to side a little
G1 X10.4 Y20 Z0.28 F1500.0 E30 ;Draw the second line
G92 E0 ;Reset Extruder
G1 Z2.0 F3000 ;Move Z Axis up

M82 ;absolute extrusion mode
G92 E0
G92 E0
G1 F2400 E-0.5
;LAYER_COUNT:150
;LAYER:0
M107
M204 S500
M205 X10 Y10
G1 F600 Z0.6
G0 F4000 X104.864 Y101.902 Z0.6
M204 S1000
M205 X5 Y5
;TYPE:SKIRT
G1 F600 Z0.2
G1 F2400 E0
G1 F1200 X105.971 Y100.932 E0.07343
G1 X107.046 Y100.213 E0.13795
G1 X108.033 Y99.697 E0.19352
G1 X108.613 Y99.446 E0.22505
G1 X109.553 Y99.112 E0.27482
G1 X110.837 Y98.795 E0.3408
G1 X111.63 Y98.69 E0.38071
G1 X112.755 Y98.637 E0.4369
G1 X113.356 Y98.661 E0.4669
G1 X114.306 Y98.821 E0.51497
G1 X115.162 Y99.123 E0.56025
G1 X115.994 Y99.589 E0.60783
G1 X116.771 Y100.221 E0.6578
G1 X117.125 Y100.593 E0.68342
G1 X117.758 Y101.456 E0.73681
G1 X118.13 Y102.261 E0.78106
G1 X118.409 Y103.131 E0.82664
G1 X118.525 Y104.235 E0.88202
G1 X118.54 Y105.182 E0.92927
G1 X118.522 Y106.975 E1.01873
G1 X118.473 Y108.696 E1.10462
G1 X118.473 Y111.336 E1.23634
G1 X118.531 Y113.567 E1.34768
G1 X118.54 Y115.019 E1.42012
G1 X118.521 Y115.905 E1.46433
G1 X118.441 Y116.643 E1.50137
G1 X118.23 Y117.472 E1.54404
G1 X117.89 Y118.309 E1.58912
G1 X117.288 Y119.206 E1.64301
G1 X116.79 Y119.768 E1.68047
G1 X116.158 Y120.283 E1.72115
G1 X115.413 Y120.752 E1.76507
G1 X114.576 Y121.096 E1.81022
G1 X113.689 Y121.306 E1.85569
G1 X112.669 Y121.361 E1.90665
G1 X111.72 Y121.328 E1.95403
G1 X110.55 Y121.154 E2.01304
G1 X109.557 Y120.889 E2.06432
G1 X108.384 Y120.463 E2.12658
G1 X107.577 Y120.078 E2.17119
G1 X106.686 Y119.555 E2.22273
G1 X105.745 Y118.889 E2.28025
G1 X104.653 Y117.896 E2.35388
G1 X103.749 Y116.819 E2.42403
G1 X103.224 Y116.063 E2.46995
G1 X102.762 Y115.271 E2.5157
G1 X102.44 Y114.595 E2.55305
G1 X102.023 Y113.493 E2.61184
G1 X101.806 Y112.733 E2.65127
G1 X101.64 Y111.957 E2.69086
G1 X101.525 Y111.055 E2.73622
G1 X101.469 Y109.87 E2.79541
G1 X101.537 Y108.767 E2.85054
G1 X101.655 Y107.962 E2.89113
G1 X101.979 Y106.624 E2.95982
G1 X102.41 Y105.462 E3.02165
G1 X103.197 Y103.971 E3.10576
G1 X104.191 Y102.616 E3.1896
G1 X104.864 Y101.902 E3.23855
M204 S500
M205 X10 Y10
G0 F4000 X105.261 Y102.352
M204 S1000
M205 X5 Y5
G1 F1200 X106.305 Y101.431 E3.30801
G1 X107.38 Y100.712 E3.37253
G1 X108.272 Y100.247 E3.42272
G1 X108.816 Y100.011 E3.4523
G1 X109.697 Y99.695 E3.499
G1 X110.981 Y99.378 E3.56498
G1 X111.706 Y99.285 E3.60145
G1 X112.731 Y99.237 E3.65264
G1 X113.332 Y99.261 E3.68265
G1 X114.153 Y99.404 E3.72422
G1 X114.913 Y99.672 E3.76443
G1 X115.656 Y100.088 E3.80691
G1 X116.336 Y100.635 E3.85045
G1 X116.69 Y101.007 E3.87607
G1 X117.237 Y101.76 E3.9225
G1 X117.585 Y102.513 E3.96389
G1 X117.818 Y103.252 E4.00255
G1 X117.925 Y104.245 E4.05238
G1 X117.94 Y105.176 E4.09883
G1 X117.922 Y106.958 E4.18774
G1 X117.873 Y108.679 E4.27363
G1 X117.873 Y111.336 E4.40619
G1 X117.931 Y113.571 E4.51773
G1 X117.94 Y115.007 E4.58938
G1 X117.924 Y115.84 E4.63094
G1 X117.844 Y116.578 E4.66798
G1 X117.674 Y117.246 E4.70237
G1 X117.356 Y118.028 E4.74448
G1 X116.839 Y118.808 E4.79117
G1 X116.374 Y119.333 E4.82616
G1 X115.839 Y119.775 E4.86078
G1 X115.138 Y120.216 E4.9021
G1 X114.392 Y120.523 E4.94235
G1 X113.602 Y120.71 E4.98285
G1 X112.69 Y120.761 E5.02842
G1 X111.741 Y120.728 E5.07579
G1 X110.705 Y120.574 E5.12805
G1 X109.712 Y120.309 E5.17932
G1 X108.642 Y119.921 E5.23611
G1 X107.835 Y119.536 E5.28072
G1 X107.031 Y119.064 E5.32723
G1 X106.149 Y118.445 E5.38099
G1 X105.057 Y117.452 E5.45462
G1 X104.241 Y116.476 E5.51809
G1 X103.742 Y115.76 E5.56163
G1 X103.304 Y115.013 E5.60484
G1 X102.982 Y114.337 E5.64219
G1 X102.6 Y113.327 E5.69606
G1 X102.393 Y112.607 E5.73344
G1 X102.227 Y111.831 E5.77303
G1 X102.124 Y111.025 E5.81357
G1 X102.068 Y109.906 E5.86947
G1 X102.131 Y108.854 E5.92205
G1 X102.249 Y108.049 E5.96264
G1 X102.542 Y106.833 E6.02504
G1 X102.973 Y105.671 E6.08687
G1 X103.727 Y104.253 E6.16699
G1 X104.629 Y103.026 E6.24297
G1 X105.261 Y102.352 E6.28907
M204 S500
M205 X10 Y10
G0 F4000 X105.66 Y102.8
M204 S1000
M205 X5 Y5
G1 F1200 X106.639 Y101.93 E6.35441
G1 X107.714 Y101.211 E6.41893
G1 X108.511 Y100.797 E6.46374
G1 X109.019 Y100.576 E6.49138
G1 X109.9 Y100.26 E6.53807
G1 X111.057 Y99.973 E6.59754
G1 X111.782 Y99.88 E6.63401
G1 X112.707 Y99.837 E6.68021
G1 X113.308 Y99.861 E6.71022
G1 X113.996 Y99.985 E6.74509
G1 X114.665 Y100.221 E6.78049
G1 X115.321 Y100.588 E6.81799
G1 X115.901 Y101.049 E6.85495
G1 X116.255 Y101.421 E6.88057
G1 X116.717 Y102.064 E6.92007
G1 X117.013 Y102.694 E6.9548
G1 X117.229 Y103.378 E6.99059
G1 X117.325 Y104.255 E7.0346
G1 X117.34 Y105.17 E7.08026
G1 X117.322 Y106.941 E7.16862
G1 X117.273 Y108.662 E7.25451
G1 X117.273 Y111.336 E7.38792
G1 X117.331 Y113.575 E7.49966
G1 X117.34 Y114.997 E7.57061
G1 X117.327 Y115.775 E7.60943
G1 X117.247 Y116.513 E7.64646
G1 X117.094 Y117.093 E7.67639
G1 X116.824 Y117.746 E7.71164
G1 X116.39 Y118.41 E7.75122
G1 X115.957 Y118.899 E7.7838
G1 X115.457 Y119.312 E7.81616
G1 X114.862 Y119.681 E7.85109
G1 X114.208 Y119.95 E7.88637
G1 X113.515 Y120.114 E7.9219
G1 X112.711 Y120.161 E7.96208
G1 X111.762 Y120.128 E8.00945
G1 X110.86 Y119.994 E8.05494
G1 X109.867 Y119.729 E8.10622
G1 X108.9 Y119.379 E8.15753
G1 X108.093 Y118.994 E8.20213
G1 X107.373 Y118.571 E8.2438
G1 X106.553 Y118.001 E8.29362
G1 X105.461 Y117.008 E8.36726
G1 X104.733 Y116.132 E8.42408
G1 X104.259 Y115.455 E8.46531
G1 X103.846 Y114.755 E8.50586
G1 X103.524 Y114.079 E8.54322
G1 X103.176 Y113.16 E8.59224
G1 X102.979 Y112.48 E8.62756
G1 X102.822 Y111.754 E8.66462
G1 X102.723 Y110.993 E8.70291
G1 X102.667 Y109.941 E8.75547
G1 X102.725 Y108.939 E8.80554
G1 X102.833 Y108.188 E8.84339
G1 X103.106 Y107.039 E8.90231
G1 X103.503 Y105.953 E8.96
G1 X104.257 Y104.535 E9.04012
G1 X105.068 Y103.435 E9.10831
G1 X105.66 Y102.8 E9.15162
M204 S500
M205 X10 Y10
G0 F4000 X106.061 Y103.247
M204 S1000
M205 X5 Y5
G1 F1200 X106.974 Y102.428 E9.21281
G1 X107.991 Y101.743 E9.27398
G1 X108.752 Y101.347 E9.31678
G1 X109.222 Y101.141 E9.34239
G1 X110.103 Y100.825 E9.38908
G1 X111.133 Y100.568 E9.44204
G1 X111.858 Y100.475 E9.47851
G1 X112.689 Y100.437 E9.52001
G1 X113.202 Y100.452 E9.54562
G1 X113.843 Y100.567 E9.57811
G1 X114.419 Y100.771 E9.60859
G1 X114.987 Y101.088 E9.64104
G1 X115.466 Y101.463 E9.67139
G1 X115.82 Y101.835 E9.69701
G1 X116.198 Y102.37 E9.72969
G1 X116.441 Y102.874 E9.75761
G1 X116.639 Y103.502 E9.79046
G1 X116.725 Y104.265 E9.82877
G1 X116.74 Y105.164 E9.87363
G1 X116.722 Y106.924 E9.96144
G1 X116.673 Y108.645 E10.04733
G1 X116.673 Y111.336 E10.18159
G1 X116.731 Y113.579 E10.29353
G1 X116.74 Y114.989 E10.36388
G1 X116.73 Y115.715 E10.4001
G1 X116.665 Y116.366 E10.43274
G1 X116.539 Y116.864 E10.45837
G1 X116.29 Y117.467 E10.49091
G1 X115.937 Y118.017 E10.52352
G1 X115.57 Y118.44 E10.55146
G1 X115.141 Y118.802 E10.57946
G1 X114.588 Y119.145 E10.61193
G1 X114.024 Y119.377 E10.64235
G1 X113.428 Y119.518 E10.67291
G1 X112.729 Y119.561 E10.70785
G1 X111.848 Y119.534 E10.75182
G1 X111.015 Y119.414 E10.79381
G1 X110.022 Y119.149 E10.84509
G1 X109.158 Y118.837 E10.89092
G1 X108.351 Y118.452 E10.93552
G1 X107.715 Y118.078 E10.97233
G1 X106.895 Y117.508 E11.02216
G1 X105.922 Y116.624 E11.08774
G1 X105.224 Y115.787 E11.14211
G1 X104.775 Y115.149 E11.18104
G1 X104.388 Y114.497 E11.21886
G1 X104.066 Y113.821 E11.25622
G1 X103.737 Y112.948 E11.30276
G1 X103.565 Y112.352 E11.33371
G1 X103.417 Y111.675 E11.36829
G1 X103.322 Y110.959 E11.40432
G1 X103.266 Y109.976 E11.45344
G1 X103.324 Y108.974 E11.50352
G1 X103.417 Y108.325 E11.53623
G1 X103.67 Y107.245 E11.59157
G1 X104.067 Y106.159 E11.64925
G1 X104.741 Y104.89 E11.72094
G1 X105.508 Y103.843 E11.78569
G1 X106.061 Y103.247 E11.82625
M204 S500
M205 X10 Y10
G0 F4000 X106.501 Y103.655
M204 S1000
M205 X5 Y5
G1 F1200 X107.309 Y102.926 E11.88055
G1 X108.326 Y102.241 E11.94172
G1 X108.993 Y101.897 E11.97916
G1 X109.463 Y101.691 E12.00476
G1 X110.248 Y101.407 E12.04641
G1 X111.278 Y101.15 E12.09938
G1 X111.886 Y101.074 E12.12994
G1 X112.671 Y101.037 E12.16915
G1 X113.184 Y101.052 E12.19476
G1 X113.688 Y101.148 E12.22035
G1 X114.172 Y101.32 E12.24598
G1 X114.623 Y101.565 E12.27159
G1 X115.031 Y101.877 E12.29721
G1 X115.385 Y102.249 E12.32283
G1 X115.677 Y102.671 E12.34843
G1 X115.9 Y103.134 E12.37407
G1 X116.049 Y103.625 E12.39967
G1 X116.125 Y104.275 E12.43232
G1 X116.14 Y105.158 E12.47638
G1 X116.122 Y106.907 E12.56364
G1 X116.073 Y108.628 E12.64954
G1 X116.073 Y111.336 E12.78464
G1 X116.131 Y113.583 E12.89678
G1 X116.14 Y114.981 E12.96653
G1 X116.13 Y115.707 E13.00275
G1 X116.083 Y116.219 E13.0284
G1 X115.957 Y116.717 E13.05403
G1 X115.756 Y117.189 E13.07963
G1 X115.483 Y117.624 E13.10525
G1 X115.147 Y118.012 E13.13086
G1 X114.754 Y118.343 E13.15649
G1 X114.315 Y118.609 E13.1821
G1 X113.84 Y118.804 E13.20772
G1 X113.341 Y118.922 E13.2333
G1 X112.744 Y118.961 E13.26315
G1 X111.931 Y118.94 E13.30372
G1 X111.17 Y118.834 E13.34205
G1 X110.177 Y118.569 E13.39333
G1 X109.363 Y118.273 E13.43654
G1 X108.654 Y117.934 E13.47575
G1 X108.055 Y117.584 E13.51036
G1 X107.296 Y117.062 E13.55632
G1 X106.382 Y116.239 E13.61768
G1 X105.714 Y115.441 E13.6696
G1 X105.29 Y114.841 E13.70625
G1 X104.93 Y114.239 E13.74125
G1 X104.608 Y113.563 E13.7786
G1 X104.313 Y112.781 E13.8203
G1 X104.151 Y112.222 E13.84934
G1 X104.012 Y111.594 E13.88143
G1 X103.921 Y110.922 E13.91526
G1 X103.865 Y110.009 E13.96089
G1 X103.918 Y109.059 E14.00836
G1 X104.011 Y108.41 E14.04107
G1 X104.234 Y107.451 E14.09019
G1 X104.631 Y106.365 E14.14788
G1 X105.226 Y105.243 E14.21124
G1 X105.948 Y104.251 E14.27245
G1 X106.501 Y103.655 E14.31302
M204 S500
M205 X10 Y10
G1 F2400 E13.81302
G1 F600 Z0.6
;MESH:shampoo-lock.stl
G0 F4000 X111.844 Y105.435 Z0.6
M204 S1000
M205 X5 Y5
;TYPE:WALL-INNER
G1 F600 Z0.2
G1 F2400 E14.31302
G1 F901.1 X111.374 Y105.56 E14.34533
G1 F910.2 X110.9 Y105.74 E14.37868
G1 F911.4 X110.501 Y105.95 E14.40829
G1 F902.3 X109.954 Y106.312 E14.45182
G1 F903.4 X109.445 Y106.777 E14.49751
G1 F905.7 X108.916 Y107.43 E14.55306
G1 F909.1 X108.561 Y108.099 E14.60294
G1 F898.9 X108.347 Y108.702 E14.64555
G1 F894.4 X108.211 Y109.339 E14.68915
G1 F895.5 X108.155 Y110.151 E14.74356
G1 F897.8 X108.256 Y110.953 E14.79747
G1 F902.3 X108.44 Y111.594 E14.84172
G1 F897.8 X108.709 Y112.189 E14.88526
G1 F891.1 X109.058 Y112.748 E14.92954
G1 X109.475 Y113.244 E14.97308
G1 F893.3 X110.071 Y113.781 E15.02684
G1 F897.8 X110.764 Y114.192 E15.08057
G1 F903.4 X111.393 Y114.449 E15.1256
G1 F907.9 X111.844 Y114.563 E15.15627
M204 S500
M205 X10 Y10
G1 F2400 E14.65627
G1 F600 Z0.6
G0 F4000 X110 Y114.557 Z0.6
M204 S1000
M205 X5 Y5
;TYPE:WALL-OUTER
G1 F600 Z0.2
G1 F2400 E15.15627
G1 F1200 X110.286 Y114.752 E15.17354
G1 X111.177 Y115.113 E15.22151
G1 X112.081 Y115.337 E15.26797
G1 X112.54 Y115.36 E15.2909
G1 X112.54 Y113.98 E15.35975
G1 X111.752 Y113.84 E15.39968
G1 X111.11 Y113.583 E15.43418
G1 X110.611 Y113.297 E15.46287
G1 X110.179 Y112.96 E15.49021
G1 X109.786 Y112.554 E15.5184
G1 X109.451 Y112.086 E15.54711
G1 X109.145 Y111.51 E15.57965
G1 X108.938 Y110.797 E15.61669
G1 X108.868 Y110.278 E15.64282
G1 X108.868 Y109.719 E15.67071
G1 X108.938 Y109.199 E15.69688
G1 X109.138 Y108.504 E15.73297
G1 X109.533 Y107.763 E15.77486
G1 X109.973 Y107.238 E15.80903
G1 X110.486 Y106.767 E15.84378
G1 X111.2 Y106.358 E15.88483
G1 X111.855 Y106.142 E15.91924
G1 X112.54 Y106.02 E15.95395
G1 X112.54 Y104.636 E16.023
G1 X112.081 Y104.659 E16.04593
G1 X110.99 Y104.933 E16.10205
G1 X110.15 Y105.341 E16.14864
G1 X109.525 Y105.762 E16.18623
G1 X108.832 Y106.385 E16.23273
G1 X108.279 Y107.144 E16.27958
G1 X107.923 Y107.815 E16.31747
G1 X107.67 Y108.508 E16.35428
G1 X107.514 Y109.242 E16.39172
G1 X107.461 Y110.003 E16.42977
G1 X107.527 Y110.952 E16.47723
G1 X107.783 Y111.833 E16.52301
G1 X108.086 Y112.519 E16.56042
G1 X108.488 Y113.163 E16.5983
G1 X108.969 Y113.734 E16.63554
G1 X109.526 Y114.235 E16.67292
G1 X110 Y114.557 E16.70151
M204 S500
M205 X10 Y10
G1 F2400 E16.20151
G1 F600 Z0.6
;MESH:NONMESH
G0 F4000 X106.501 Y103.655 Z0.6
;TIME_ELAPSED:22.886202
;LAYER:1
M106 S255
G0 F8000 X106.501 Y103.655 Z0.8
M204 S1000
M205 X5 Y5
;TYPE:SKIRT
G1 F600 Z0.4
G1 F2400 E16.70151
G1 F1200 X107.309 Y102.926 E16.7377
G1 X108.326 Y102.241 E16.77849
G1 X108.993 Y101.897 E16.80345
G1 X109.463 Y101.691 E16.82052
G1 X110.248 Y101.407 E16.84828
G1 X111.278 Y101.15 E16.88359
G1 X111.886 Y101.074 E16.90397
G1 X112.671 Y101.037 E16.93011
G1 X113.184 Y101.052 E16.94718
G1 X113.688 Y101.148 E16.96424
G1 X114.172 Y101.32 E16.98133
G1 X114.623 Y101.565 E16.9984
G1 X115.031 Y101.877 E17.01548
G1 X115.385 Y102.249 E17.03256
G1 X115.677 Y102.671 E17.04963
G1 X115.9 Y103.134 E17.06672
G1 X116.049 Y103.625 E17.08379
G1 X116.125 Y104.275 E17.10555
G1 X116.14 Y105.158 E17.13492
G1 X116.122 Y106.907 E17.1931
G1 X116.073 Y108.628 E17.25036
G1 X116.073 Y111.336 E17.34043
G1 X116.131 Y113.583 E17.41519
G1 X116.14 Y114.981 E17.46169
G1 X116.13 Y115.707 E17.48584
G1 X116.083 Y116.219 E17.50294
G1 X115.957 Y116.717 E17.52003
G1 X115.756 Y117.189 E17.53709
G1 X115.483 Y117.624 E17.55417
G1 X115.147 Y118.012 E17.57124
G1 X114.754 Y118.343 E17.58833
G1 X114.315 Y118.609 E17.6054
G1 X113.84 Y118.804 E17.62248
G1 X113.341 Y118.922 E17.63954
G1 X112.744 Y118.961 E17.65944
G1 X111.931 Y118.94 E17.68649
G1 X111.17 Y118.834 E17.71204
G1 X110.177 Y118.569 E17.74622
G1 X109.363 Y118.273 E17.77503
G1 X108.654 Y117.934 E17.80117
G1 X108.055 Y117.584 E17.82424
G1 X107.296 Y117.062 E17.85488
G1 X106.382 Y116.239 E17.89579
G1 X105.714 Y115.441 E17.9304
G1 X105.29 Y114.841 E17.95484
G1 X104.93 Y114.239 E17.97817
G1 X104.608 Y113.563 E18.00307
G1 X104.313 Y112.781 E18.03087
G1 X104.151 Y112.222 E18.05023
G1 X104.012 Y111.594 E18.07162
G1 X103.921 Y110.922 E18.09418
G1 X103.865 Y110.009 E18.1246
G1 X103.918 Y109.059 E18.15625
G1 X104.011 Y108.41 E18.17805
G1 X104.234 Y107.451 E18.2108
G1 X104.631 Y106.365 E18.24926
G1 X105.226 Y105.243 E18.2915
G1 X105.948 Y104.251 E18.33231
G1 X106.501 Y103.655 E18.35935
M204 S500
M205 X10 Y10
G1 F2400 E17.85935
G1 F600 Z0.8
;MESH:shampoo-lock.stl
G0 F8000 X110 Y114.194 Z0.8
M204 S1000
M205 X5 Y5
;TYPE:WALL-INNER
G1 F600 Z0.4
G1 F2400 E18.35935
G1 F1500 X110.297 Y114.394 E18.37126
G1 X110.927 Y114.702 E18.39458
G1 X111.615 Y114.928 E18.41867
G1 X112.24 Y115.039 E18.43978
G1 X112.24 Y114.231 E18.46666
G1 X111.808 Y114.151 E18.48127
G1 X111.076 Y113.912 E18.50688
G1 X110.333 Y113.483 E18.53542
G1 X109.646 Y112.872 E18.56599
G1 X109.215 Y112.276 E18.59046
G1 X108.856 Y111.594 E18.61609
G1 X108.649 Y110.881 E18.64079
G1 X108.569 Y110.299 E18.66033
G1 X108.569 Y109.698 E18.68031
G1 X108.648 Y109.116 E18.69985
G1 X108.856 Y108.401 E18.72462
G1 X109.29 Y107.587 E18.7553
G1 X109.751 Y107.035 E18.77922
G1 X110.303 Y106.532 E18.80406
G1 X111.073 Y106.088 E18.83362
G1 X111.751 Y105.858 E18.85743
G1 X112.24 Y105.768 E18.87397
G1 X112.24 Y104.959 E18.90088
G1 X111.622 Y105.068 E18.92175
G1 X110.933 Y105.291 E18.94584
G1 X110.302 Y105.596 E18.96915
G1 X109.719 Y105.995 E18.99264
G1 X109.057 Y106.586 E19.02216
G1 X108.534 Y107.303 E19.05168
G1 X108.197 Y107.937 E19.07556
G1 X107.959 Y108.591 E19.09871
G1 X107.812 Y109.284 E19.12227
G1 X107.762 Y110.003 E19.14624
G1 X107.812 Y110.708 E19.16975
G1 X107.958 Y111.402 E19.19333
G1 X108.197 Y112.059 E19.21659
G1 X108.615 Y112.844 E19.24617
