;FLAVOR:Marlin
;TIME:1037
;Filament used: 0.739967m
;Layer height: 0.2
;MINX:99.567
;MINY:97.233
;MINZ:0.2
;MAXX:120.44
;MAXY:122.761
;MAXZ:31.4
;TARGET_MACHINE.NAME:SV06
;Generated with Cura_SteamEngine 5.10.0
M140 S60
M105
M190 S60
M104 S200
M105
M109 S200
M201 X500.00 Y500.00 Z100.00 E5000.00 ;Setup machine max acceleration
M203 X500.00 Y500.00 Z10.00 E50.00 ;Setup machine max feedrate
M204 P500.00 R1000.00 T500.00 ;Setup Print/Retract/Travel acceleration
M205 X8.00 Y8.00 Z0.40 E5.00 ;Setup Jerk
M220 S100 ;Reset Feedrate
M221 S100 ;Reset Flowrate

G28 ;Home
M420 S1 ;use bed mesh, must have used G29 previously

G92 E0 ;Reset Extruder
G1 Z2.0 F3000 ;Move Z Axis up
G1 X10.1 Y20 Z0.28 F5000.0 ;Move to start position
G1 X10.1 Y200.0 Z0.28 F1500.0 E15 ;Draw the first line
G1 X10.4 Y200.0 Z0.28 F5000.0 ;Move to side a little
G1 X10.4 Y20 Z0.28 F1500.0 E30 ;Draw the second line
G92 E0 ;Reset Extruder
G1 Z2.0 F3000 ;Move Z Axis up

M82 ;absolute extrusion mode
G92 E0
G92 E0
G1 F2400 E-0.5
;LAYER_COUNT:155
;LAYER:0
M107
M204 S500
M205 X10 Y10
G1 F600 Z0.6
G0 F4000 X103.383 Y100.892 Z0.6
M204 S1000
M205 X5 Y5
;TYPE:SKIRT
G1 F600 Z0.2
G1 F2400 E0
G1 F1200 X104.302 Y100.084 E0.06105
G1 X105.192 Y99.415 E0.1166
G1 X105.761 Y99.06 E0.15006
G1 X106.778 Y98.502 E0.20793
G1 X107.33 Y98.26 E0.238
G1 X108.378 Y97.869 E0.29381
G1 X109.161 Y97.641 E0.33449
G1 X109.961 Y97.462 E0.37539
G1 X110.711 Y97.342 E0.41329
G1 X111.633 Y97.253 E0.4595
G1 X112.666 Y97.233 E0.51104
G1 X114.073 Y97.342 E0.58145
G1 X115.757 Y97.682 E0.66716
G1 X117.075 Y98.141 E0.73679
G1 X117.731 Y98.425 E0.77245
G1 X118.493 Y98.936 E0.81823
G1 X118.976 Y99.369 E0.85059
G1 X119.4 Y99.869 E0.88329
G1 X119.87 Y100.611 E0.92711
G1 X120.196 Y101.393 E0.96938
G1 X120.415 Y102.352 E1.01846
G1 X120.44 Y103.847 E1.09306
G1 X120.427 Y105.349 E1.16799
G1 X120.327 Y108.646 E1.33256
G1 X120.327 Y111.245 E1.46222
G1 X120.437 Y115.006 E1.64994
G1 X120.44 Y116.413 E1.72014
G1 X120.424 Y117.241 E1.76145
G1 X120.329 Y118.062 E1.80269
G1 X120.191 Y118.606 E1.83069
G1 X119.913 Y119.291 E1.86757
G1 X119.439 Y120.093 E1.91404
G1 X118.875 Y120.732 E1.95657
G1 X118.339 Y121.175 E1.99126
G1 X117.513 Y121.693 E2.0399
G1 X116.493 Y122.068 E2.09412
G1 X115.764 Y122.292 E2.13217
G1 X114.953 Y122.488 E2.17379
G1 X113.952 Y122.659 E2.22446
G1 X113.139 Y122.741 E2.26522
G1 X111.84 Y122.761 E2.33004
G1 X110.61 Y122.659 E2.39161
G1 X109.003 Y122.34 E2.47335
G1 X107.545 Y121.838 E2.55028
G1 X106.386 Y121.301 E2.61401
G1 X105.364 Y120.689 E2.67344
G1 X104.544 Y120.101 E2.72378
G1 X103.897 Y119.57 E2.76554
G1 X103.311 Y119.027 E2.8054
G1 X102.826 Y118.515 E2.84058
G1 X102.041 Y117.536 E2.90319
G1 X101.567 Y116.84 E2.9452
G1 X101.127 Y116.09 E2.98858
G1 X100.764 Y115.368 E3.0289
G1 X100.228 Y114.079 E3.09854
G1 X99.911 Y112.885 E3.16018
G1 X99.767 Y112.177 E3.19622
G1 X99.629 Y111.162 E3.24733
G1 X99.567 Y109.958 E3.30747
G1 X99.592 Y109.319 E3.33938
G1 X99.671 Y108.432 E3.38381
G1 X99.806 Y107.582 E3.42674
G1 X100.032 Y106.632 E3.47546
G1 X100.351 Y105.59 E3.52983
G1 X100.56 Y105.078 E3.55742
G1 X101.015 Y104.123 E3.6102
G1 X101.479 Y103.303 E3.6572
G1 X101.942 Y102.602 E3.69911
G1 X102.604 Y101.731 E3.75369
G1 X103.383 Y100.892 E3.81081
M204 S500
M205 X10 Y10
G0 F4000 X103.823 Y101.3
M204 S1000
M205 X5 Y5
G1 F1200 X104.664 Y100.563 E3.8666
G1 X105.51 Y99.924 E3.9195
G1 X106.079 Y99.569 E3.95296
G1 X107.019 Y99.051 E4.0065
G1 X107.54 Y98.822 E4.03489
G1 X108.547 Y98.445 E4.08854
G1 X109.292 Y98.227 E4.12727
G1 X110.092 Y98.048 E4.16817
G1 X110.77 Y97.939 E4.20243
G1 X111.645 Y97.853 E4.24629
G1 X112.678 Y97.833 E4.29784
G1 X113.956 Y97.93 E4.36178
G1 X115.56 Y98.249 E4.44337
G1 X116.837 Y98.692 E4.5108
G1 X117.445 Y98.955 E4.54385
G1 X118.097 Y99.387 E4.58287
G1 X118.518 Y99.757 E4.61084
G1 X118.942 Y100.257 E4.64354
G1 X119.334 Y100.886 E4.68052
G1 X119.622 Y101.577 E4.71787
G1 X119.816 Y102.425 E4.76127
G1 X119.84 Y103.842 E4.83197
G1 X119.827 Y105.331 E4.90626
G1 X119.727 Y108.628 E5.07083
G1 X119.727 Y111.263 E5.20229
G1 X119.837 Y115.007 E5.38916
G1 X119.84 Y116.403 E5.4588
G1 X119.827 Y117.176 E5.49737
G1 X119.747 Y117.914 E5.53441
G1 X119.609 Y118.458 E5.56241
G1 X119.359 Y119.061 E5.59497
G1 X118.953 Y119.737 E5.63432
G1 X118.457 Y120.299 E5.67171
G1 X117.957 Y120.712 E5.70407
G1 X117.247 Y121.152 E5.74574
G1 X116.316 Y121.495 E5.79524
G1 X115.622 Y121.709 E5.83147
G1 X114.851 Y121.897 E5.87106
G1 X113.89 Y122.062 E5.91971
G1 X113.128 Y122.141 E5.95793
G1 X111.888 Y122.163 E6.0198
G1 X110.727 Y122.07 E6.07791
G1 X109.12 Y121.751 E6.15965
G1 X107.796 Y121.293 E6.22954
G1 X106.694 Y120.786 E6.29006
G1 X105.672 Y120.174 E6.34949
G1 X104.925 Y119.637 E6.39539
G1 X104.278 Y119.106 E6.43715
G1 X103.747 Y118.614 E6.47327
G1 X103.262 Y118.102 E6.50845
G1 X102.536 Y117.197 E6.56633
G1 X102.084 Y116.536 E6.60628
G1 X101.663 Y115.82 E6.64772
G1 X101.3 Y115.098 E6.68804
G1 X100.808 Y113.925 E6.7515
G1 X100.491 Y112.731 E6.81313
G1 X100.362 Y112.096 E6.84546
G1 X100.224 Y111.081 E6.89657
G1 X100.167 Y109.981 E6.95152
G1 X100.19 Y109.371 E6.98197
G1 X100.264 Y108.525 E7.02434
G1 X100.39 Y107.721 E7.06494
G1 X100.616 Y106.771 E7.11366
G1 X100.907 Y105.817 E7.16342
G1 X101.116 Y105.305 E7.19101
G1 X101.537 Y104.418 E7.24
G1 X101.98 Y103.634 E7.28492
G1 X102.443 Y102.933 E7.32683
G1 X103.044 Y102.139 E7.37652
G1 X103.823 Y101.3 E7.43363
M204 S500
M205 X10 Y10
G0 F4000 X104.219 Y101.751
M204 S1000
M205 X5 Y5
G1 F1200 X105.027 Y101.041 E7.4873
G1 X105.828 Y100.433 E7.53747
G1 X106.37 Y100.094 E7.56936
G1 X107.261 Y99.6 E7.62019
G1 X107.751 Y99.384 E7.6469
G1 X108.717 Y99.021 E7.69839
G1 X109.423 Y98.813 E7.73511
G1 X110.223 Y98.634 E7.77601
G1 X110.83 Y98.536 E7.80668
G1 X111.657 Y98.453 E7.84815
G1 X112.69 Y98.433 E7.8997
G1 X113.841 Y98.519 E7.95728
G1 X115.363 Y98.816 E8.03464
G1 X116.64 Y99.259 E8.10208
G1 X117.157 Y99.484 E8.13021
G1 X117.701 Y99.838 E8.16259
G1 X118.122 Y100.208 E8.19055
G1 X118.481 Y100.64 E8.21858
G1 X118.797 Y101.158 E8.24885
G1 X119.048 Y101.761 E8.28143
G1 X119.217 Y102.498 E8.31916
G1 X119.24 Y103.837 E8.38597
G1 X119.227 Y105.313 E8.45961
G1 X119.127 Y108.61 E8.62417
G1 X119.127 Y111.281 E8.75743
G1 X119.237 Y115.008 E8.94345
G1 X119.24 Y116.395 E9.01265
G1 X119.23 Y117.116 E9.04862
G1 X119.165 Y117.766 E9.08122
G1 X119.027 Y118.31 E9.10922
G1 X118.807 Y118.825 E9.13715
G1 X118.468 Y119.381 E9.16964
G1 X118.07 Y119.84 E9.19995
G1 X117.641 Y120.202 E9.22796
G1 X116.984 Y120.609 E9.26651
G1 X116.108 Y120.932 E9.31309
G1 X115.48 Y121.126 E9.34589
G1 X114.709 Y121.314 E9.38548
G1 X113.828 Y121.465 E9.43007
G1 X113.066 Y121.544 E9.46829
G1 X111.934 Y121.565 E9.52478
G1 X110.842 Y121.481 E9.57942
G1 X109.316 Y121.184 E9.65698
G1 X107.992 Y120.726 E9.72688
G1 X107.001 Y120.271 E9.78128
G1 X106.022 Y119.687 E9.83815
G1 X105.306 Y119.173 E9.88212
G1 X104.659 Y118.642 E9.92388
G1 X104.183 Y118.201 E9.95626
G1 X103.698 Y117.689 E9.99144
G1 X103.031 Y116.857 E10.04464
G1 X102.601 Y116.231 E10.08253
G1 X102.199 Y115.55 E10.12198
G1 X101.836 Y114.828 E10.1623
G1 X101.388 Y113.771 E10.21958
G1 X101.071 Y112.577 E10.28121
G1 X100.95 Y111.977 E10.31175
G1 X100.823 Y111.049 E10.35848
G1 X100.767 Y110.003 E10.41074
G1 X100.788 Y109.422 E10.43974
G1 X100.857 Y108.617 E10.48005
G1 X100.974 Y107.86 E10.51826
G1 X101.2 Y106.91 E10.56698
G1 X101.463 Y106.044 E10.61214
G1 X101.672 Y105.532 E10.63973
G1 X102.079 Y104.676 E10.68701
G1 X102.481 Y103.965 E10.72776
G1 X102.944 Y103.264 E10.76968
G1 X103.485 Y102.546 E10.81453
G1 X104.219 Y101.751 E10.86851
M204 S500
M205 X10 Y10
G0 F4000 X104.616 Y102.201
M204 S1000
M205 X5 Y5
G1 F1200 X105.39 Y101.519 E10.91998
G1 X106.191 Y100.911 E10.97015
G1 X106.662 Y100.618 E10.99782
G1 X107.503 Y100.149 E11.04586
G1 X107.993 Y99.933 E11.07258
G1 X108.887 Y99.596 E11.12024
G1 X109.554 Y99.399 E11.15494
G1 X110.354 Y99.22 E11.19584
G1 X110.891 Y99.133 E11.22298
G1 X111.669 Y99.053 E11.262
G1 X112.702 Y99.033 E11.31355
G1 X113.728 Y99.108 E11.36487
G1 X115.167 Y99.383 E11.43796
G1 X116.401 Y99.809 E11.50309
G1 X116.872 Y100.014 E11.52872
G1 X117.305 Y100.289 E11.55431
G1 X117.691 Y100.628 E11.57994
G1 X118.019 Y101.023 E11.60555
G1 X118.281 Y101.464 E11.63115
G1 X118.473 Y101.94 E11.65675
G1 X118.618 Y102.571 E11.68905
G1 X118.64 Y103.832 E11.75198
G1 X118.627 Y105.295 E11.82497
G1 X118.527 Y108.592 E11.98953
G1 X118.527 Y111.299 E12.12458
G1 X118.637 Y115.009 E12.30976
G1 X118.64 Y116.387 E12.37851
G1 X118.63 Y117.108 E12.41448
G1 X118.583 Y117.619 E12.44008
G1 X118.457 Y118.117 E12.46571
G1 X118.255 Y118.589 E12.49132
G1 X117.983 Y119.024 E12.51692
G1 X117.647 Y119.412 E12.54253
G1 X117.254 Y119.743 E12.56816
G1 X116.721 Y120.066 E12.59926
G1 X115.9 Y120.369 E12.64292
G1 X115.338 Y120.543 E12.67227
G1 X114.567 Y120.731 E12.71186
G1 X113.766 Y120.868 E12.7524
G1 X113.004 Y120.947 E12.79062
G1 X111.978 Y120.967 E12.84182
G1 X110.954 Y120.892 E12.89304
G1 X109.511 Y120.617 E12.96633
G1 X108.241 Y120.18 E13.03334
G1 X107.307 Y119.755 E13.08453
G1 X106.371 Y119.199 E13.13885
G1 X105.687 Y118.709 E13.18082
G1 X105.04 Y118.178 E13.22258
G1 X104.619 Y117.788 E13.25121
G1 X104.134 Y117.276 E13.2864
G1 X103.525 Y116.516 E13.33499
G1 X103.118 Y115.926 E13.37075
G1 X102.716 Y115.245 E13.4102
G1 X102.372 Y114.559 E13.44849
G1 X101.968 Y113.617 E13.49962
G1 X101.651 Y112.423 E13.56125
G1 X101.538 Y111.859 E13.58995
G1 X101.422 Y111.016 E13.63241
G1 X101.367 Y110.024 E13.68197
G1 X101.386 Y109.472 E13.70953
G1 X101.45 Y108.707 E13.74783
G1 X101.558 Y107.999 E13.78356
G1 X101.784 Y107.049 E13.83228
G1 X102.019 Y106.271 E13.87282
G1 X102.228 Y105.759 E13.90041
G1 X102.602 Y104.97 E13.94398
G1 X102.982 Y104.295 E13.98262
G1 X103.424 Y103.624 E14.02271
G1 X103.927 Y102.952 E14.06459
G1 X104.616 Y102.201 E14.11543
M204 S500
M205 X10 Y10
G1 F2400 E13.61543
G1 F600 Z0.6
;MESH:shampoo-lock.stl
G0 F4000 X114.339 Y103.627 Z0.6
M204 S1000
M205 X5 Y5
;TYPE:WALL-INNER
G1 F600 Z0.2
G1 F2400 E14.11543
G1 F897.8 X113.501 Y103.422 E14.17296
G1 F902.3 X112.571 Y103.322 E14.23503
G1 F904.5 X112.109 Y103.322 E14.26561
G1 F900 X111.175 Y103.422 E14.32809
G1 X110.272 Y103.646 E14.38998
G1 F902.3 X109.414 Y103.994 E14.45142
G1 X108.995 Y104.214 E14.48282
G1 X108.251 Y104.717 E14.54241
G1 F898.9 X107.531 Y105.361 E14.60675
G1 F897.8 X106.935 Y106.073 E14.66867
G1 F900 X106.459 Y106.83 E14.72815
G1 F893.3 X106.244 Y107.282 E14.7617
G1 F892.2 X106.048 Y107.752 E14.79587
G1 F887.8 X105.862 Y108.361 E14.83881
G1 F891.1 X105.72 Y109.102 E14.8895
G1 F902.3 X105.66 Y110.004 E14.94948
G1 F903.4 X105.724 Y110.929 E15.01093
G1 F904.5 X105.878 Y111.738 E15.06544
G1 F901.1 X106.237 Y112.716 E15.13465
G1 F900 X106.676 Y113.541 E15.19682
G1 F901.1 X107.22 Y114.291 E15.25837
G1 F902.3 X107.642 Y114.76 E15.30023
G1 X108.252 Y115.284 E15.35359
G1 F901.1 X108.972 Y115.769 E15.41127
G1 F898.9 X109.799 Y116.174 E15.4726
G1 F895.5 X110.319 Y116.366 E15.50966
G1 F897.8 X111.175 Y116.576 E15.56843
G1 F902.3 X112.082 Y116.673 E15.62896
G1 F903.4 X112.57 Y116.674 E15.6613
G1 X113.472 Y116.581 E15.72139
G1 F894.4 X113.96 Y116.471 E15.75488
G1 F893.3 X114.34 Y116.37 E15.78123
M204 S500
M205 X10 Y10
G1 F2400 E15.28123
G1 F600 Z0.6
G0 F4000 X110 Y116.998 Z0.6
M204 S1000
M205 X5 Y5
;TYPE:WALL-OUTER
G1 F600 Z0.2
G1 F2400 E15.78123
G1 F1200 X110.053 Y117.018 E15.78406
G1 X110.548 Y117.156 E15.80969
G1 X111.053 Y117.264 E15.83546
G1 X111.568 Y117.337 E15.86141
G1 X112.082 Y117.372 E15.88711
G1 X112.593 Y117.372 E15.9126
G1 X113.104 Y117.337 E15.93816
G1 X113.623 Y117.264 E15.96431
G1 X114.421 Y117.092 E16.00503
G1 X115.04 Y116.866 E16.03791
G1 X115.04 Y115.342 E16.11394
G1 X114.17 Y115.691 E16.16071
G1 X113.384 Y115.888 E16.20113
G1 X112.564 Y115.975 E16.24227
G1 X112.128 Y115.976 E16.26403
G1 X111.285 Y115.886 E16.30632
G1 X110.514 Y115.692 E16.34599
G1 X110.098 Y115.54 E16.36808
G1 X109.359 Y115.186 E16.40896
G1 X108.647 Y114.707 E16.45178
G1 X108.029 Y114.146 E16.49342
G1 X107.744 Y113.828 E16.51472
G1 X107.266 Y113.166 E16.55546
G1 X106.877 Y112.434 E16.59681
G1 X106.59 Y111.649 E16.63851
G1 X106.413 Y110.826 E16.68051
G1 X106.36 Y109.98 E16.7228
G1 X106.413 Y109.178 E16.7629
G1 X106.495 Y108.729 E16.78567
G1 X106.721 Y107.947 E16.82628
G1 X107.064 Y107.181 E16.86816
G1 X107.506 Y106.476 E16.90967
G1 X108.054 Y105.829 E16.95197
G1 X108.647 Y105.293 E16.99185
G1 X109.36 Y104.81 E17.03482
G1 X109.72 Y104.622 E17.05508
G1 X110.496 Y104.307 E17.09686
G1 X111.306 Y104.11 E17.13845
G1 X112.123 Y104.02 E17.17946
G1 X112.544 Y104.019 E17.20046
G1 X113.4 Y104.116 E17.24344
G1 X114.167 Y104.305 E17.28285
G1 X115.04 Y104.659 E17.32985
G1 X115.04 Y103.131 E17.40608
G1 X114.62 Y102.979 E17.42836
G1 X114.127 Y102.84 E17.45392
G1 X113.623 Y102.732 E17.47963
G1 X113.108 Y102.659 E17.50558
G1 X112.594 Y102.625 E17.53128
G1 X112.086 Y102.624 E17.55663
G1 X111.571 Y102.659 E17.58238
G1 X111.053 Y102.732 E17.60848
G1 X110.549 Y102.839 E17.63419
G1 X109.779 Y103.064 E17.67421
G1 X109.108 Y103.366 E17.71092
G1 X108.646 Y103.609 E17.73696
G1 X108.213 Y103.881 E17.76247
G1 X107.801 Y104.181 E17.7879
G1 X107.401 Y104.516 E17.81393
G1 X107.028 Y104.873 E17.83969
G1 X106.683 Y105.257 E17.86544
G1 X106.368 Y105.664 E17.89112
G1 X106.083 Y106.088 E17.91661
G1 X105.821 Y106.538 E17.94258
G1 X105.599 Y106.995 E17.96793
G1 X105.402 Y107.479 E17.994
G1 X105.172 Y108.189 E18.03124
G1 X105.033 Y108.971 E18.07086
G1 X104.976 Y109.49 E18.09691
G1 X104.952 Y110.287 E18.13669
G1 X105.037 Y111.045 E18.17475
G1 X105.16 Y111.772 E18.21153
G1 X105.402 Y112.521 E18.2508
G1 X105.598 Y113.001 E18.27667
G1 X105.822 Y113.459 E18.3021
G1 X106.083 Y113.912 E18.32819
G1 X106.531 Y114.57 E18.3679
G1 X107.028 Y115.123 E18.405
G1 X107.397 Y115.481 E18.43065
G1 X107.797 Y115.815 E18.45664
G1 X108.431 Y116.275 E18.49572
G1 X109.104 Y116.63 E18.53368
G1 X109.578 Y116.841 E18.55957
G1 X110 Y116.998 E18.58203
M204 S500
M205 X10 Y10
G1 F2400 E18.08203
G1 F600 Z0.6
;MESH:NONMESH
G0 F4000 X104.616 Y102.201 Z0.6
;TIME_ELAPSED:24.712145
;LAYER:1
M106 S255
G0 F8000 X104.616 Y102.201 Z0.8
M204 S1000
M205 X5 Y5
;TYPE:SKIRT
G1 F600 Z0.4
G1 F2400 E18.58203
G1 F1200 X105.39 Y101.519 E18.61634
G1 X106.191 Y100.911 E18.64979
G1 X106.662 Y100.618 E18.66824
G1 X107.503 Y100.149 E18.70027
G1 X107.993 Y99.933 E18.71808
G1 X108.887 Y99.596 E18.74985
G1 X109.554 Y99.399 E18.77299
G1 X110.354 Y99.22 E18.80025
G1 X110.891 Y99.133 E18.81835
G1 X111.669 Y99.053 E18.84436
G1 X112.702 Y99.033 E18.87872
G1 X113.728 Y99.108 E18.91294
G1 X115.167 Y99.383 E18.96167
G1 X116.401 Y99.809 E19.00509
G1 X116.872 Y100.014 E19.02217
G1 X117.305 Y100.289 E19.03923
G1 X117.691 Y100.628 E19.05632
G1 X118.019 Y101.023 E19.0734
G1 X118.281 Y101.464 E19.09046
G1 X118.473 Y101.94 E19.10753
G1 X118.618 Y102.571 E19.12906
G1 X118.64 Y103.832 E19.17101
G1 X118.627 Y105.295 E19.21967
G1 X118.527 Y108.592 E19.32938
G1 X118.527 Y111.299 E19.41942
G1 X118.637 Y115.009 E19.54286
G1 X118.64 Y116.387 E19.5887
G1 X118.63 Y117.108 E19.61268
G1 X118.583 Y117.619 E19.62975
G1 X118.457 Y118.117 E19.64683
G1 X118.255 Y118.589 E19.66391
G1 X117.983 Y119.024 E19.68097
G1 X117.647 Y119.412 E19.69804
G1 X117.254 Y119.743 E19.71513
G1 X116.721 Y120.066 E19.73586
G1 X115.9 Y120.369 E19.76497
G1 X115.338 Y120.543 E19.78454
G1 X114.567 Y120.731 E19.81093
G1 X113.766 Y120.868 E19.83796
G1 X113.004 Y120.947 E19.86344
G1 X111.978 Y120.967 E19.89757
G1 X110.954 Y120.892 E19.93172
G1 X109.511 Y120.617 E19.98058
G1 X108.241 Y120.18 E20.02525
G1 X107.307 Y119.755 E20.05938
G1 X106.371 Y119.199 E20.09559
G1 X105.687 Y118.709 E20.12358
G1 X105.04 Y118.178 E20.15141
G1 X104.619 Y117.788 E20.1705
G1 X104.134 Y117.276 E20.19396
G1 X103.525 Y116.516 E20.22635
G1 X103.118 Y115.926 E20.25019
G1 X102.716 Y115.245 E20.27649
G1 X102.372 Y114.559 E20.30202
G1 X101.968 Y113.617 E20.33611
G1 X101.651 Y112.423 E20.3772
G1 X101.538 Y111.859 E20.39633
G1 X101.422 Y111.016 E20.42463
G1 X101.367 Y110.024 E20.45767
G1 X101.386 Y109.472 E20.47604
G1 X101.45 Y108.707 E20.50158
G1 X101.558 Y107.999 E20.5254
G1 X101.784 Y107.049 E20.55788
